X:6
T:Black Nag
M:6/8
L:1/8
Q:1/4=320
K:Dm clef=treble
A [||: "Dm"dAd "C"ede | "Dm"fef "Am"efg | "Dm"agf "C"ede | "Dm"d3- d2 d :|
[||: "Am"ecA ecA | "Am" ecA ecA | "Dm"afd afd | afd afd |
"Am"ecA ecA | ecA efg | "Dm"agf "C"ede | "Dm"d3-d2 A :|

